assets/features/money-saving.svg

<?xml version="1.0" encoding="UTF-8"?>
<svg width="16px" height="16px" viewBox="0 0 16 16" version="1.1" xmlns="http://www.w3.org/2000/svg" xmlns:xlink="http://www.w3.org/1999/xlink">
    <!-- Generator: Sketch 49.3 (51167) - http://www.bohemiancoding.com/sketch -->
    <title>Money Saving</title>
    <desc>Created with Sketch.</desc>
    <defs></defs>
    <g id="moneySaving-16px" stroke="none" stroke-width="1" fill="none" fill-rule="evenodd">
        <path d="M7.90542992,13.5810766 C7.66540664,13.5873964 7.41844596,13.5763537 7.1389205,13.5525933 C7.09957687,13.549249 7.06075859,13.5457606 7.01660501,13.5416466 C6.99515275,13.5396478 6.92797572,13.5332961 6.91658377,13.5322327 C6.90222264,13.5308921 6.88945535,13.5297292 6.87819716,13.528734 C6.84318337,13.5708986 6.79638614,13.6375242 6.73958236,13.7270252 C6.61412872,13.9246921 6.44491651,14.2255653 6.23308215,14.6280859 L6.16892249,14.75 L4.72292616,14.7074512 L4.72292616,14.4933463 C4.72292616,14.2944673 4.64451117,13.8444566 4.53458145,13.4609153 C4.47205516,13.2427631 4.40234466,13.0535937 4.33059247,12.9117275 C4.29416422,12.8397027 4.25816722,12.7818409 4.2242922,12.7401462 C4.19711511,12.7066956 4.17498143,12.6880158 4.16233114,12.6824048 C3.60328242,12.4036959 3.23785387,12.0685803 2.70205387,11.4280736 C2.65801391,11.3754273 2.50768028,11.1942772 2.49745312,11.1819938 C2.41597914,11.0841392 2.35237816,11.0088231 2.28914948,10.935758 C2.20931861,10.8295982 2.13692411,10.7636691 2.05914296,10.7175926 C1.95591614,10.6564425 1.87611345,10.6366128 1.66134285,10.6063854 C1.53613782,10.5887638 1.47120747,10.5759786 1.39627281,10.5483584 C1.28563366,10.5075779 1.195398,10.4423136 1.12727793,10.3451946 C1.06629338,10.2582488 1.04184503,10.0808662 1.020634,9.75275544 C1.00261476,9.47401811 0.995615859,9.1429861 1.00275779,8.84006353 C1.01108923,8.4866886 1.03758438,8.18921665 1.08440589,7.98081208 C1.11490215,7.84507186 1.15411312,7.74200037 1.21360438,7.66662903 C1.31751242,7.53498468 1.4837694,7.49988727 1.62940741,7.59198951 C1.66266989,7.59942781 1.69029429,7.60223438 1.72297583,7.60297662 C1.79681302,7.60465355 1.88632123,7.59572251 1.97432857,7.57717347 C2.1552108,7.53904949 2.29084615,7.46788613 2.31972234,7.41313153 C2.66567191,6.7571473 3.17841995,6.21094824 3.8259127,5.78234703 L2.97394681,4.10998447 L3.19882704,4.02056368 C4.49678013,3.50444899 5.44553253,3.80586454 5.95227499,4.90663821 C7.01564339,4.67033417 8.14896213,4.66350204 9.09892379,4.87697116 C10.2086125,5.12633309 11.2416059,5.72412154 12.0267474,6.53273168 C12.782,7.31055947 13.2481988,8.22613335 13.2953536,9.05351677 C13.3380988,9.80353142 13.1386718,10.4730086 12.7502521,11.0753953 C12.4778918,11.4977896 12.1845268,11.8046417 11.7423673,12.1913742 C11.3148643,12.5652873 11.0583063,13.3105546 10.9930557,14.432678 L10.9809764,14.6404078 L10.7725403,14.6404078 L9.83420352,14.6404078 L9.59961932,14.6404078 L9.52142458,14.6404078 L9.41204491,14.6404078 L9.3457436,14.5535621 C9.32875958,14.5315403 9.31955563,14.5197131 9.30907866,14.5063467 C9.27898181,14.4679493 9.2448403,14.4250781 9.20736453,14.3788695 C9.10037071,14.2469432 8.98840745,14.1150776 8.87735042,13.9925198 C8.81608104,13.9249055 8.75675658,13.8620111 8.70001721,13.8047789 C8.57885412,13.6825636 8.4730187,13.5901496 8.39271343,13.5360312 C8.24612387,13.5619702 8.0832899,13.5763936 7.90542992,13.5810766 Z M6.36640661,13.4909905 C6.43607431,13.3812209 6.49547993,13.2971889 6.54667557,13.2370633 C6.63197663,13.1368832 6.7012317,13.0829919 6.81312692,13.0829919 C6.85441884,13.0829919 7.19058131,13.1143712 7.17640103,13.1131658 C7.44098945,13.1356565 7.67292654,13.1460274 7.89378222,13.1402124 C8.08173312,13.1352636 8.24708042,13.1183031 8.38487168,13.088117 L8.46113687,13.0714095 L8.53097785,13.1062599 C8.66909334,13.1751789 8.82846998,13.3073986 9.01401184,13.4945518 C9.07567673,13.5567522 9.13947641,13.6243911 9.20496582,13.6966625 C9.32198677,13.8258018 9.43899729,13.9636119 9.55071358,14.1013611 C9.57874665,14.1359267 9.60502112,14.1687398 9.62928418,14.1993902 L10.5665119,14.1993902 C10.6578802,13.0820487 10.9471053,12.3006034 11.4512424,11.8596626 C11.8648935,11.497865 12.1338649,11.2165279 12.3787842,10.836691 C12.7190254,10.3090226 12.8914344,9.73024526 12.8542936,9.07856801 C12.8137422,8.3670479 12.3960263,7.54669038 11.7095378,6.83968201 C10.9827796,6.09120028 10.0255303,5.53724464 9.00190879,5.30722315 C8.0649647,5.09667925 6.92452415,5.1162269 5.87509868,5.37793544 L5.6861991,5.42504372 L5.61567608,5.24387039 C5.25091438,4.3067991 4.60496698,4.01361598 3.59041784,4.34720491 L4.40337671,5.94299763 L4.22867982,6.04924502 C3.5648195,6.45299247 3.04796957,6.97892424 2.71063025,7.61858186 C2.60488988,7.81908511 2.36300851,7.94599224 2.06558751,8.00867873 C1.86901224,8.05011028 1.6753645,8.05793247 1.52952205,8.02146459 C1.52474597,8.03831968 1.5200421,8.05697766 1.51547034,8.07732675 C1.47636096,8.25140432 1.45211365,8.52363885 1.44440872,8.85044063 C1.43757395,9.14033493 1.44429936,9.45843098 1.46149016,9.72435329 C1.46946287,9.84768221 1.4793441,9.95344003 1.49001502,10.0308618 C1.49447407,10.063214 1.4989279,10.0894946 1.5030042,10.1083384 C1.53217757,10.1356729 1.58467475,10.150216 1.72301579,10.1696865 C1.99399948,10.2078254 2.11508667,10.2379138 2.28458718,10.3383234 C2.41140291,10.4134472 2.52572039,10.5169106 2.62853736,10.6533323 C2.69220973,10.7270046 2.75623459,10.802858 2.83719247,10.9000927 C2.84790923,10.9129641 2.99776252,11.0935355 3.0411396,11.1453894 C3.5399089,11.7416287 3.86605015,12.0410718 4.34706931,12.2817966 C4.60864018,12.401765 4.79867296,12.7791368 4.95931062,13.3395965 C5.05074355,13.6586031 5.12183334,14.0172086 5.15068812,14.2788291 L5.90649501,14.3010689 C6.09375865,13.9491133 6.24678739,13.6794646 6.36640661,13.4909905 Z M1.50694777,10.1246244 C1.5074547,10.1263864 1.50783883,10.1276336 1.50808224,10.1283349 C1.5079784,10.1280357 1.50787388,10.1277359 1.50776866,10.1274354 L1.50694777,10.1246244 Z M10.7153709,4.70987676 C10.6709507,4.82596458 10.540672,4.88412427 10.4243853,4.83978006 C10.3080986,4.79543585 10.2498392,4.66538 10.2942594,4.54929218 C10.3849372,4.31231459 10.4320033,4.0596244 10.4320033,3.8001017 C10.4320033,2.64025747 9.49015274,1.70001795 8.3283212,1.70001795 C7.16648965,1.70001795 6.22463909,2.64025747 6.22463909,3.8001017 C6.22463909,3.97690204 6.24647499,4.1506398 6.28919759,4.31863699 C6.31982823,4.43908516 6.24684942,4.56151626 6.12619487,4.59209449 C6.00554032,4.62267273 5.88289944,4.54981875 5.85226881,4.42937058 C5.80036064,4.22525318 5.77385007,4.01432127 5.77385007,3.8001017 C5.77385007,2.39171942 6.91752575,1.25 8.3283212,1.25 C9.73911665,1.25 10.8827923,2.39171942 10.8827923,3.8001017 C10.8827923,4.11472657 10.8255924,4.42182358 10.7153709,4.70987676 Z M8.07975501,4.15293501 C8.07975501,4.22755738 8.10039759,4.28615083 8.14168337,4.32871711 C8.18296914,4.37128339 8.23960391,4.39256621 8.31158937,4.39256621 C8.41004007,4.39256621 8.48599417,4.36129886 8.53945396,4.29876321 C8.59291374,4.23622756 8.61964324,4.145053 8.61964324,4.0252368 L9.15476774,4.0252368 C9.15476774,4.2427978 9.09310465,4.41805264 8.96977663,4.55100658 C8.8464486,4.68396053 8.66939879,4.76252304 8.43862189,4.78669649 L8.43862189,5.10515375 L8.18614475,5.10515375 L8.18614475,4.78827301 C7.98818475,4.76935466 7.83177752,4.70314144 7.71691837,4.58963135 C7.60205922,4.47612126 7.54463051,4.32950627 7.54463051,4.14978197 C7.54463051,4.04362901 7.5626266,3.95271721 7.59861933,3.87704382 C7.63461206,3.80137042 7.68436597,3.7351572 7.74788255,3.67840216 C7.81139913,3.62164711 7.88682393,3.57093619 7.97415923,3.52626787 C8.06149452,3.48159955 8.15438613,3.4385084 8.25283683,3.39699314 C8.35128752,3.35547788 8.4227426,3.31186123 8.46720421,3.26614189 C8.51166581,3.22042255 8.53389628,3.15867609 8.53389628,3.08090066 C8.53389628,3.00417625 8.51457695,2.9440063 8.47593769,2.90038899 C8.43729844,2.85677169 8.38304551,2.83496337 8.31317727,2.83496337 C8.23484016,2.83496337 8.17450032,2.86439147 8.13215593,2.92324855 C8.08981154,2.98210563 8.06863967,3.06618592 8.06863967,3.17549193 L7.53192726,3.17549193 C7.53192726,2.97579826 7.58723878,2.81105345 7.69786349,2.68125256 C7.8084882,2.55145168 7.96066105,2.47236366 8.15438662,2.44398614 L8.15438662,2.1050341 L8.40686376,2.1050341 L8.40686376,2.43768005 C8.60799959,2.4565984 8.76890585,2.52359988 8.88958735,2.63868649 C9.01026885,2.75377311 9.07060869,2.90012535 9.07060869,3.07774762 C9.07060869,3.18390057 9.05367119,3.27428688 9.01979568,3.34890925 C8.98592017,3.42353162 8.93722486,3.48921934 8.87370828,3.54597438 C8.8101917,3.60272943 8.73450225,3.6526521 8.64663765,3.69574389 C8.55877305,3.73883568 8.46297031,3.78140132 8.35922656,3.8234421 C8.25548282,3.86548287 8.18296914,3.91015052 8.14168337,3.95744639 C8.10039759,4.00474226 8.07975501,4.06990448 8.07975501,4.15293501 Z M14.6221249,6.48450913 C14.7137987,6.40044116 14.8563824,6.40647981 14.9405944,6.49799685 C15.0248064,6.58951388 15.0187574,6.73185364 14.9270836,6.81592161 C14.4618157,7.24258781 14.0409057,7.47355318 13.6539628,7.49732433 C13.6453895,7.49785101 13.636845,7.498276 13.6283297,7.49859956 C13.461469,7.73496884 13.2305205,7.94207895 12.9373482,8.11809075 C12.8306717,8.18213611 12.6921853,8.14772466 12.6280302,8.04123061 C12.5638751,7.93473657 12.5983455,7.79648706 12.705022,7.73244169 C12.8778528,7.62867931 13.0217255,7.51486763 13.1373746,7.39028181 C12.943913,7.28967226 12.7736124,7.12073754 12.6295976,6.88874739 C12.4487437,6.59741414 12.3981679,6.31861745 12.4833283,6.08196949 C12.5625615,5.86179249 12.7504393,5.70878605 12.9815264,5.65337469 C13.4704098,5.53614747 13.9463656,5.86384001 13.9501168,6.43874138 C13.9513887,6.63367493 13.926191,6.81790858 13.8749917,6.99098045 C14.0910161,6.90950062 14.3412936,6.74204077 14.6221249,6.48450913 Z M13.4993373,6.44167261 C13.4975691,6.17067081 13.3055815,6.0384886 13.0868098,6.09094691 C12.8771359,6.1412237 12.8106226,6.32605414 13.0127727,6.65169292 C13.1286687,6.83838698 13.2523609,6.95527073 13.3888612,7.01079692 C13.4642737,6.83771912 13.5006863,6.64841829 13.4993373,6.44167261 Z M4.4966145,8.1352746 C4.21445541,8.1352746 3.98572028,7.90693071 3.98572028,7.62525426 C3.98572028,7.3435778 4.21445541,7.11523392 4.4966145,7.11523392 C4.77877359,7.11523392 5.00750873,7.3435778 5.00750873,7.62525426 C5.00750873,7.90693071 4.77877359,8.1352746 4.4966145,8.1352746 Z" id="Combined-Shape" fill="#689BFF" fill-rule="nonzero" transform="translate(8.000000, 8.000000) scale(-1, 1) translate(-8.000000, -8.000000) "></path>
    </g>
</svg>

<?xml version="1.0" encoding="UTF-8" standalone="no"?>
<svg
   xmlns:dc="http://purl.org/dc/elements/1.1/"
   xmlns:cc="http://creativecommons.org/ns#"
   xmlns:rdf="http://www.w3.org/1999/02/22-rdf-syntax-ns#"
   xmlns:svg="http://www.w3.org/2000/svg"
   xmlns="http://www.w3.org/2000/svg"
   xmlns:sodipodi="http://sodipodi.sourceforge.net/DTD/sodipodi-0.dtd"
   xmlns:inkscape="http://www.inkscape.org/namespaces/inkscape"
   width="16px"
   height="16px"
   viewBox="0 0 16 16"
   version="1.1"
   id="svg10"
   sodipodi:docname="money-saving.svg"
   inkscape:version="0.92.3 (2405546, 2018-03-11)">
  <metadata
     id="metadata14">
    <rdf:RDF>
      <cc:Work
         rdf:about="">
        <dc:format>image/svg+xml</dc:format>
        <dc:type
           rdf:resource="http://purl.org/dc/dcmitype/StillImage" />
      </cc:Work>
    </rdf:RDF>
  </metadata>
  <sodipodi:namedview
     pagecolor="#ffffff"
     bordercolor="#666666"
     borderopacity="1"
     objecttolerance="10"
     gridtolerance="10"
     guidetolerance="10"
     inkscape:pageopacity="0"
     inkscape:pageshadow="2"
     inkscape:window-width="2560"
     inkscape:window-height="1346"
     id="namedview12"
     showgrid="false"
     inkscape:zoom="20.85965"
     inkscape:cx="3.7704234"
     inkscape:cy="8.3772862"
     inkscape:window-x="-11"
     inkscape:window-y="-11"
     inkscape:window-maximized="1"
     inkscape:current-layer="svg10" />
  <!-- Generator: Sketch 49.3 (51167) - http://www.bohemiancoding.com/sketch -->
  <title
     id="title2">Money Saving</title>
  <desc
     id="desc4">Created with Sketch.</desc>
  <defs
     id="defs6" />
  <g
     id="moneySaving-16px"
     transform="matrix(1.1428571,0,0,1.1428571,-1.142858,-1.1428568)"
     style="fill:none;fill-rule:evenodd;stroke:none;stroke-width:1">
    <path
       d="m 7.9054299,13.581077 c -0.2400233,0.0063 -0.4869839,-0.0047 -0.7665094,-0.02848 -0.039344,-0.0033 -0.078162,-0.0068 -0.1223155,-0.01095 -0.021452,-0.002 -0.088629,-0.0084 -0.1000212,-0.0094 -0.014361,-0.0013 -0.027128,-0.0025 -0.038387,-0.0035 -0.035014,0.04217 -0.081811,0.10879 -0.1386148,0.198291 -0.1254537,0.197667 -0.2946659,0.49854 -0.5065002,0.901061 L 6.1689225,14.75 4.7229262,14.707451 v -0.214105 c 0,-0.198879 -0.078415,-0.648889 -0.1883448,-1.032431 -0.062526,-0.218152 -0.1322367,-0.407321 -0.2039889,-0.549187 -0.036428,-0.07203 -0.072425,-0.129887 -0.1063003,-0.171582 -0.027177,-0.03345 -0.049311,-0.05213 -0.061961,-0.05774 C 3.6032824,12.403696 3.2378539,12.06858 2.7020539,11.428074 2.6580139,11.375427 2.5076803,11.194277 2.4974531,11.181994 2.4159791,11.084139 2.3523782,11.008823 2.2891495,10.935758 2.2093186,10.829598 2.1369241,10.763669 2.059143,10.717593 1.9559161,10.656443 1.8761134,10.636613 1.6613429,10.606385 1.5361378,10.588764 1.4712075,10.575979 1.3962728,10.548358 1.2856337,10.507578 1.195398,10.442314 1.1272779,10.345195 1.0662934,10.258249 1.041845,10.080866 1.020634,9.7527554 1.0026148,9.4740181 0.99561586,9.1429861 1.0027578,8.8400635 1.0110892,8.4866886 1.0375844,8.1892167 1.0844059,7.9808121 1.1149021,7.8450719 1.1541131,7.7420004 1.2136044,7.666629 1.3175124,7.5349847 1.4837694,7.4998873 1.6294074,7.59199 1.6626694,7.59943 1.6902944,7.602235 1.7229754,7.602977 1.7968124,7.604657 1.8863208,7.595727 1.9743282,7.577174 2.1552108,7.5390495 2.2908462,7.4678861 2.3197223,7.4131315 2.6656719,6.7571473 3.17842,6.2109482 3.8259127,5.782347 L 2.9739468,4.1099845 3.198827,4.0205637 C 4.4967801,3.504449 5.4455325,3.8058645 5.952275,4.9066382 7.0156434,4.6703342 8.1489621,4.663502 9.0989238,4.8769712 c 1.1096882,0.2493619 2.1426822,0.8471503 2.9278232,1.6557605 0.755253,0.7778278 1.221452,1.6934017 1.268607,2.5207851 0.04275,0.7500146 -0.156682,1.4194922 -0.545102,2.0218782 -0.27236,0.422395 -0.565725,0.729247 -1.007885,1.115979 -0.427503,0.373913 -0.684061,1.119181 -0.749311,2.241304 l -0.01208,0.20773 H 10.77254 9.8342035 9.5996193 9.5214246 9.4120449 l -0.066301,-0.08685 c -0.016984,-0.02202 -0.026188,-0.03385 -0.036665,-0.04721 -0.030097,-0.0384 -0.064238,-0.08127 -0.1017142,-0.127477 C 9.1003707,14.246943 8.9884075,14.115078 8.8773504,13.99252 8.816081,13.924906 8.7567566,13.862011 8.7000172,13.804779 8.5788541,13.682564 8.4730187,13.59015 8.3927134,13.536031 c -0.1465895,0.02594 -0.3094235,0.04036 -0.4872835,0.04505 z m -1.5390233,-0.09009 c 0.069668,-0.10977 0.1290733,-0.193802 0.180269,-0.253928 0.085301,-0.10018 0.1545561,-0.154071 0.2664513,-0.154071 0.041292,0 0.3774544,0.03138 0.3632741,0.03017 0.2645884,0.02249 0.4965255,0.03286 0.7173812,0.02705 0.1879509,-0.0049 0.3532982,-0.02191 0.4910895,-0.05209 l 0.076265,-0.01671 0.069841,0.03485 c 0.1381155,0.06892 0.2974922,0.201139 0.483034,0.388292 0.061665,0.0622 0.1254646,0.129839 0.190954,0.202111 0.117021,0.129139 0.2340315,0.266949 0.3457478,0.404698 0.028033,0.03457 0.054308,0.06738 0.078571,0.09803 h 0.9372275 c 0.09137,-1.117341 0.380593,-1.898787 0.88473,-2.339727 0.413652,-0.361798 0.682623,-0.643135 0.927542,-1.022972 0.340241,-0.527668 0.51265,-1.1064457 0.47551,-1.758123 C 12.813742,8.3670479 12.396026,7.5466904 11.709538,6.839682 10.98278,6.0912003 10.02553,5.5372446 9.0019088,5.3072231 8.0649647,5.0966792 6.9245241,5.1162269 5.8750987,5.3779354 L 5.6861991,5.4250437 5.6156761,5.2438704 C 5.2509144,4.3067991 4.604967,4.013616 3.5904178,4.3472049 L 4.4033767,5.9429976 4.2286798,6.049245 C 3.5648195,6.4529925 3.0479696,6.9789242 2.7106303,7.6185819 2.6048899,7.8190851 2.3630085,7.9459922 2.0655875,8.0086787 1.8690122,8.0501107 1.6753645,8.0579327 1.529522,8.0214647 1.524742,8.0383197 1.520042,8.0569777 1.51547,8.0773267 1.476361,8.2514043 1.452113,8.5236388 1.444408,8.8504406 1.437578,9.1403349 1.4442987,9.458431 1.461489,9.7243533 1.469459,9.8476822 1.479343,9.95344 1.490014,10.030862 c 0.00446,0.03235 0.00891,0.05863 0.012989,0.07748 0.029173,0.02734 0.081671,0.04188 0.2200116,0.06135 0.2709837,0.03814 0.3920709,0.06823 0.5615714,0.168637 0.1268157,0.07512 0.2411332,0.178588 0.3439502,0.315009 0.063672,0.07367 0.1276972,0.149526 0.2086551,0.246761 0.010717,0.01287 0.16057,0.193443 0.2039471,0.245296 0.4987693,0.59624 0.8249106,0.895683 1.3059297,1.136408 0.2615709,0.119968 0.4516037,0.49734 0.6122413,1.0578 0.091433,0.319006 0.1625227,0.677612 0.1913775,0.939232 l 0.7558069,0.02224 c 0.1872648,-0.351962 0.3402936,-0.62161 0.4599128,-0.810084 z M 1.5069478,10.124624 c 5.069e-4,0.0018 8.91e-4,0.003 0.00113,0.0037 -1.038e-4,-2.99e-4 -2.083e-4,-5.99e-4 -3.135e-4,-9e-4 z M 10.715371,4.7098768 C 10.670951,4.8259646 10.540672,4.8841243 10.424385,4.8397801 10.308099,4.7954358 10.249839,4.66538 10.294259,4.5492922 c 0.09068,-0.2369776 0.137744,-0.4896678 0.137744,-0.7491905 0,-1.1598442 -0.9418503,-2.1000837 -2.1036818,-2.1000837 -1.1618316,0 -2.1036821,0.9402395 -2.1036821,2.1000837 0,0.1768003 0.021836,0.3505381 0.064558,0.5185353 C 6.3198282,4.4390852 6.2468494,4.5615163 6.1261949,4.5920945 6.0055403,4.6226727 5.8828994,4.5498187 5.8522688,4.4293706 5.8003606,4.2252532 5.7738501,4.0143213 5.7738501,3.8001017 5.7738501,2.3917194 6.9175257,1.25 8.3283212,1.25 c 1.4107955,0 2.5544708,1.1417194 2.5544708,2.5501017 0,0.3146249 -0.0572,0.6217219 -0.167421,0.9097751 z M 8.079755,4.152935 c 0,0.074622 0.020643,0.1332158 0.061928,0.1757821 0.041286,0.042566 0.097921,0.063849 0.169906,0.063849 0.098451,0 0.1744048,-0.031267 0.2278646,-0.093803 0.05346,-0.062536 0.080189,-0.1537102 0.080189,-0.2735264 h 0.5351245 c 0,0.217561 -0.061663,0.3928158 -0.1849911,0.5257698 -0.1233274,0.132954 -0.3003772,0.2115165 -0.5311541,0.23569 V 5.1051538 H 8.1861448 V 4.788273 C 7.9881847,4.7693547 7.8317775,4.7031414 7.7169184,4.5896314 7.6020592,4.4761213 7.5446305,4.3295063 7.5446305,4.149782 c 0,-0.106153 0.017996,-0.1970648 0.053989,-0.2727382 0.035993,-0.075673 0.085747,-0.1418866 0.1492632,-0.1986416 0.063517,-0.056755 0.1389414,-0.107466 0.2262767,-0.1521343 0.087335,-0.044668 0.1802269,-0.08776 0.2786776,-0.1292748 0.098451,-0.041515 0.1699058,-0.085132 0.2143674,-0.1308512 0.044462,-0.045719 0.066692,-0.1074658 0.066692,-0.1852412 0,-0.076724 -0.019319,-0.1368944 -0.057959,-0.1805117 C 8.4372984,2.856772 8.3830454,2.834963 8.313177,2.834963 8.23484,2.834963 8.1745,2.864391 8.1321556,2.923248 8.0898116,2.982105 8.0686396,3.0661854 8.0686396,3.1754914 H 7.5319273 c 0,-0.1996936 0.055311,-0.3644384 0.1659362,-0.4942393 C 7.8084882,2.5514517 7.960661,2.4723637 8.1543866,2.4439861 v -0.338952 h 0.2524772 v 0.332646 c 0.2011358,0.018918 0.3620421,0.08592 0.4827235,0.2010064 0.1206815,0.1150866 0.1810214,0.2614389 0.1810214,0.4390611 0,0.106153 -0.016937,0.1965393 -0.050813,0.2711617 -0.033875,0.074622 -0.082571,0.14031 -0.1460874,0.1970651 C 8.8101917,3.6027294 8.7345023,3.6526521 8.6466377,3.6957439 8.558773,3.7388357 8.4629703,3.7814013 8.3592266,3.8234421 8.2554828,3.8654829 8.1829691,3.9101505 8.1416834,3.9574464 8.1003976,4.0047423 8.079755,4.0699045 8.079755,4.152935 Z m 6.54237,2.3315741 c 0.09167,-0.084068 0.234257,-0.078029 0.318469,0.013488 0.08421,0.091517 0.07816,0.2338568 -0.01351,0.3179248 -0.465268,0.4266662 -0.886178,0.6576316 -1.273121,0.6814027 -0.0086,5.267e-4 -0.01712,9.517e-4 -0.02563,0.00128 -0.166861,0.2363692 -0.397809,0.4434793 -0.690982,0.6194912 -0.106676,0.064045 -0.245163,0.029634 -0.309318,-0.07686 -0.06416,-0.106494 -0.02968,-0.2447435 0.07699,-0.3087889 0.172831,-0.1037624 0.316704,-0.2175741 0.432353,-0.3421599 -0.193462,-0.1006095 -0.363763,-0.2695443 -0.507777,-0.5015344 -0.180854,-0.2913333 -0.23143,-0.57013 -0.14627,-0.8067779 0.07923,-0.220177 0.267111,-0.3731835 0.498198,-0.4285948 0.488884,-0.1172272 0.96484,0.2104653 0.968591,0.7853667 0.0013,0.1949335 -0.02393,0.3791672 -0.07512,0.5522391 0.216024,-0.08148 0.466302,-0.2489397 0.747133,-0.5064714 z m -1.122788,-0.042836 c -0.0018,-0.2710018 -0.193755,-0.403184 -0.412527,-0.3507257 -0.209674,0.050277 -0.276187,0.2351072 -0.07404,0.560746 0.115896,0.1866941 0.239588,0.3035778 0.376088,0.359104 0.07541,-0.1730778 0.111825,-0.3623786 0.110476,-0.5691243 z m -9.0027225,1.693602 c -0.2821591,0 -0.5108942,-0.2283439 -0.5108942,-0.5100203 0,-0.2816765 0.2287351,-0.5100204 0.5108942,-0.5100204 0.2821591,0 0.5108942,0.2283439 0.5108942,0.5100204 0,0.2816764 -0.2287351,0.5100203 -0.5108942,0.5100203 z"
       id="Combined-Shape"
       transform="matrix(-1,0,0,1,16,0)"
       inkscape:connector-curvature="0"
       style="fill:#689bff;fill-rule:nonzero" />
  </g>
</svg>
